X:1
T:Holy, Holy, Holy!
M:C
L:1/8
Q:80
C:Rev. 4:8
S:Hymn
K:HP
{g}A2{GAG}A2{g}c2{d}c2 | \
{gef}e4{A}e4 | \
{gfg}f4{e}f2{g}f2 |
{gef}e4{gcd}c4 | \
{gef}e3{A}e{g}e2{A}e2 | \
{ag}a4{f}g2{a}e2 |
{g}B2{g}e2{gfg}f3{g}e | \
{A}e4-e4 | \
{g}A2{GAG}A2{g}c2{d}c2 |
{gef}e4{A}e4 | \
{gfg}f3{e}f{g}f2{g}f2 | \
{gef}e4{A}e4 |
{ag}a4{ef}e2{A}e2 | \
{gfg}f4{gcd}c4 | \
{Gdc}d2{e}B2{g}B3{G}A |
{GAG}A4-A4|]
